X:7
T:My Lord's Delight
M:C|
L:1/8
B:Thompson's Compleat Collection of 200 Favourite Country Dances, vol. 1 (London, 1757)
Z:Transcribed and edited by Fynnian Titford-Mock, 2007
Z:abc's:AK/Fiddler's Companion
K:D
f/e/d c/B/c d/c/B A2|B/A/G F/E/F G/F/E D2|D>FE>G|F>AG>g|f/e/d c>d e4:|
|:a/f/d a/f/d =c/B/A G/F/G|b/^g/e b/^g/e d/c/B c2|A/B/c d/e/f g/f/e f/a/c|d/f/G F2E2 D2:|

